config/expand/iconfont/module-menu/module-yanfangguanli_active.svg

<?xml version="1.0" encoding="UTF-8"?>
<svg width="21px" height="20px" viewBox="0 0 21 20" version="1.1" xmlns="http://www.w3.org/2000/svg" xmlns:xlink="http://www.w3.org/1999/xlink">
    <!-- Generator: Sketch 53 (72520) - https://sketchapp.com -->
    <title>yanfangguanliActive</title>
    <desc>Created with Sketch.</desc>
    <g id="Page-2" stroke="none" stroke-width="1" fill="none" fill-rule="evenodd">
        <g id="图标" transform="translate(-993.000000, -643.000000)" fill="#FFFFFF">
            <g id="yanfangguanliActive" transform="translate(993.000000, 643.000000)">
                <path d="M10.5117507,0.000159690275 C10.2884296,0.000159690275 10.0651086,0.092316775 9.89827461,0.264433671 L0.242923208,9.59980242 L0.219277445,9.62284169 C0.0689497512,9.79180928 -0.00965954963,10.0157678 0.000949933959,10.2448584 C0.0115594175,10.473949 0.110507021,10.6891556 0.275764539,10.8425678 C0.621255348,11.1664728 1.15722588,11.7413701 1.48169821,11.3835838 L2.5641485,10.2207783 L2.5641485,18.2720547 C2.5641485,19.2275068 3.32344008,20 4.2613885,20 L16.7410944,20 C17.6790428,20 18.4383344,19.2275068 18.4383344,18.2720547 L18.4383344,10 L19.5207847,11.1628055 C19.8458193,11.512718 20.3830079,11.1512559 20.7267184,10.8208837 C20.8926029,10.6671734 20.9909948,10.4506467 20.9994122,10.2207783 C21.0078296,9.99090991 20.9255532,9.76734182 20.7713826,9.60115766 L11.1265404,0.263078412 C10.9665283,0.0914045716 10.7435117,-0.00446150159 10.5117507,0.000159690275 Z M4.60261798,18.059156 L4.60261798,8.45559867 L10.5117507,2.85896176 L16.4758725,8.45559867 L16.4758725,18.059156 L16.7410944,18.059156 L4.60261798,18.059156 Z" id="Shape" fill-rule="nonzero"></path>
                <path d="M13.775637,14.5431102 L12.6703129,13.3345905 C13.5054939,12.066935 13.5823277,10.3736787 12.8660854,9.02017512 C11.8653353,7.10399999 9.61212779,6.42991455 7.85503933,7.5256391 C7.01065624,8.04295716 6.38965623,8.91291892 6.13132975,9.94039172 C5.87300328,10.9678645 5.99897304,12.0668458 6.480984,12.9908338 C7.48295001,14.9083517 9.73615756,15.5824372 11.49203,14.4867126 C11.5029738,14.5095402 11.5236455,14.5202826 11.5443171,14.5431102 L12.6593691,15.7516299 C12.971036,16.08279 13.4639701,16.08279 13.775637,15.7516299 C14.0747877,15.4165164 14.0747877,14.8782237 13.775637,14.5431102 Z M9.67414268,13.2875925 C8.51653147,13.2875925 7.57536435,12.2616936 7.57536435,11.0048331 C7.57536435,9.75065816 8.51653145,8.72341641 9.67414268,8.72341641 C10.8305379,8.72341641 11.771705,9.75065816 11.771705,11.0061759 C11.771705,12.2616936 10.8305379,13.2889353 9.67414268,13.2889353 L9.67414268,13.2875925 Z M13.775637,14.5431102 L12.6703129,13.3345905 C13.5054939,12.066935 13.5823277,10.3736787 12.8660854,9.02017512 C11.8653353,7.10399999 9.61212779,6.42991455 7.85503933,7.5256391 C7.01065624,8.04295716 6.38965623,8.91291892 6.13132975,9.94039172 C5.87300328,10.9678645 5.99897304,12.0668458 6.480984,12.9908338 C7.48295001,14.9083517 9.73615756,15.5824372 11.49203,14.4867126 C11.5029738,14.5095402 11.5236455,14.5202826 11.5443171,14.5431102 L12.6593691,15.7516299 C12.971036,16.08279 13.4639701,16.08279 13.775637,15.7516299 C14.0747877,15.4165164 14.0747877,14.8782237 13.775637,14.5431102 Z M9.67414268,13.2875925 C8.51653147,13.2875925 7.57536435,12.2616936 7.57536435,11.0048331 C7.57536435,9.75065816 8.51653145,8.72341641 9.67414268,8.72341641 C10.8305379,8.72341641 11.771705,9.75065816 11.771705,11.0061759 C11.771705,12.2616936 10.8305379,13.2889353 9.67414268,13.2889353 L9.67414268,13.2875925 Z M13.775637,14.5431102 L12.6703129,13.3345905 C13.5054939,12.066935 13.5823277,10.3736787 12.8660854,9.02017512 C11.8653353,7.10399999 9.61212779,6.42991455 7.85503933,7.5256391 C7.01065624,8.04295716 6.38965623,8.91291892 6.13132975,9.94039172 C5.87300328,10.9678645 5.99897304,12.0668458 6.480984,12.9908338 C7.48295001,14.9083517 9.73615756,15.5824372 11.49203,14.4867126 C11.5029738,14.5095402 11.5236455,14.5202826 11.5443171,14.5431102 L12.6593691,15.7516299 C12.971036,16.08279 13.4639701,16.08279 13.775637,15.7516299 C14.0747877,15.4165164 14.0747877,14.8782237 13.775637,14.5431102 Z M9.67414268,13.2875925 C8.51653147,13.2875925 7.57536435,12.2616936 7.57536435,11.0048331 C7.57536435,9.75065816 8.51653145,8.72341641 9.67414268,8.72341641 C10.8305379,8.72341641 11.771705,9.75065816 11.771705,11.0061759 C11.771705,12.2616936 10.8305379,13.2889353 9.67414268,13.2889353 L9.67414268,13.2875925 Z" id="Shape"></path>
            </g>
        </g>
    </g>
</svg>

<svg width="21" height="20" xmlns="http://www.w3.org/2000/svg"><path d="M10.512 0a.858.858 0 00-.614.264L.243 9.6l-.024.023a.876.876 0 00.057 1.22c.345.323.881.898 1.206.54l1.082-1.162v8.051c0 .956.76 1.728 1.697 1.728h12.48c.938 0 1.697-.772 1.697-1.728V10l1.083 1.163c.325.35.862-.012 1.206-.342a.865.865 0 00.045-1.22L11.126.263A.819.819 0 0010.512 0zm-5.91 18.06V8.455l5.91-5.597 5.964 5.597v9.603h.265H4.603z"/><path d="M13.776 14.543l-1.106-1.208c.835-1.268.912-2.961.196-4.315-1-1.916-3.254-2.59-5.011-1.494-.844.517-1.465 1.387-1.724 2.414a4.345 4.345 0 00.35 3.05c1.002 1.918 3.255 2.592 5.011 1.497.011.023.032.033.052.056l1.115 1.209a.751.751 0 001.117 0 .927.927 0 000-1.209zm-4.102-1.255c-1.157 0-2.099-1.026-2.099-2.283 0-1.254.942-2.282 2.1-2.282 1.156 0 2.097 1.028 2.097 2.283 0 1.256-.941 2.283-2.098 2.283v-.001zm4.102 1.255l-1.106-1.208c.835-1.268.912-2.961.196-4.315-1-1.916-3.254-2.59-5.011-1.494-.844.517-1.465 1.387-1.724 2.414a4.345 4.345 0 00.35 3.05c1.002 1.918 3.255 2.592 5.011 1.497.011.023.032.033.052.056l1.115 1.209a.751.751 0 001.117 0 .927.927 0 000-1.209zm-4.102-1.255c-1.157 0-2.099-1.026-2.099-2.283 0-1.254.942-2.282 2.1-2.282 1.156 0 2.097 1.028 2.097 2.283 0 1.256-.941 2.283-2.098 2.283v-.001zm4.102 1.255l-1.106-1.208c.835-1.268.912-2.961.196-4.315-1-1.916-3.254-2.59-5.011-1.494-.844.517-1.465 1.387-1.724 2.414a4.345 4.345 0 00.35 3.05c1.002 1.918 3.255 2.592 5.011 1.497.011.023.032.033.052.056l1.115 1.209a.751.751 0 001.117 0 .927.927 0 000-1.209zm-4.102-1.255c-1.157 0-2.099-1.026-2.099-2.283 0-1.254.942-2.282 2.1-2.282 1.156 0 2.097 1.028 2.097 2.283 0 1.256-.941 2.283-2.098 2.283v-.001z"/></svg>
